X: 4288
T: Bobby Casey's
R: reel
M: 4/4
K: Dmajor
DFAB B2 AB|d2 fd edBd|DFAB B2 AB|dgfd edBA|
DFAB B2 AB|d2 fd edBd|faaf g2 fe|dgfd edBA:|
|:d2 df eA A2|defg afef|dgfd eB B2|gB B2 dBAB|
d2 fd edfd|Adfd edBA|ABdf afbf|afeg fddA:|

